packages/base/core/src/svg/system/eye.svg

<?xml version="1.0" encoding="UTF-8"?>
<svg width="24px" height="24px" viewBox="0 0 24 24" version="1.1" xmlns="http://www.w3.org/2000/svg" xmlns:xlink="http://www.w3.org/1999/xlink">
    <!-- Generator: Sketch 54.1 (76490) - https://sketchapp.com -->
    <title>Icons/System/eye-open</title>
    <desc>Created with Sketch.</desc>
    <g id="Icons/System/eye-open" stroke="none" stroke-width="1" fill="none" fill-rule="evenodd">
        <path d="M20.9741,12.0648 C20.9981,12.0278 20.9981,11.9728 20.9781,11.9408 C20.2001,10.7658 19.2271,9.7738 18.1241,8.9918 C18.5471,9.9048 18.7901,10.9218 18.7901,11.9998 C18.7901,13.0788 18.5471,14.0958 18.1231,15.0088 C19.2251,14.2278 20.1971,13.2378 20.9741,12.0648 Z M3.0141,12.0588 C3.7961,13.2398 4.7741,14.2348 5.8831,15.0188 C5.4571,14.1028 5.2111,13.0818 5.2111,11.9998 C5.2111,10.9188 5.4571,9.8968 5.8831,8.9808 C4.7751,9.7638 3.7981,10.7568 3.0171,11.9358 C2.9941,11.9728 2.9941,12.0278 3.0141,12.0588 Z M16.7901,11.9998 C16.7901,9.2308 14.6381,7.0008 12.0021,6.9998 L12.0011,6.9998 C9.3641,7.0008 7.2111,9.2308 7.2111,11.9998 C7.2111,14.7688 9.3631,16.9988 11.9991,16.9998 C12.0031,16.9998 12.0071,16.9998 12.0121,16.9988 C14.6441,16.9928 16.7901,14.7648 16.7901,11.9998 Z M22.6491,10.8428 C23.1071,11.5438 23.1071,12.4558 22.6451,13.1638 C20.4001,16.5538 16.7791,18.6578 12.8301,18.9428 C12.5581,18.9768 12.2831,19.0008 12.0011,19.0008 L11.9981,19.0008 L11.9961,19.0008 C11.9911,19.0008 11.9861,18.9998 11.9811,18.9998 C11.7111,18.9988 11.4471,18.9768 11.1851,18.9448 C7.2331,18.6688 3.5981,16.5628 1.3421,13.1578 C0.8851,12.4558 0.8851,11.5438 1.3461,10.8368 C3.5981,7.4368 7.2331,5.3308 11.1851,5.0548 C11.4471,5.0228 11.7111,5.0018 11.9811,5.0008 C11.9861,5.0008 11.9911,4.9998 11.9961,4.9998 L12.0071,4.9998 C12.0131,4.9998 12.0181,5.0018 12.0241,5.0018 C12.2951,5.0028 12.5611,5.0238 12.8241,5.0568 C16.7701,5.3368 20.3971,7.4418 22.6491,10.8428 Z M12.001,9.8182 L12.096,9.8182 C12.034,9.9932 12.002,10.1772 12.001,10.3632 C12.001,11.2672 12.708,12.0002 13.58,12.0002 C13.759,11.9992 13.938,11.9652 14.106,11.9012 L14.106,12.0002 C14.106,13.2052 13.164,14.1822 12.001,14.1822 C10.838,14.1822 9.896,13.2052 9.896,12.0002 C9.896,10.7952 10.838,9.8182 12.001,9.8182 Z" id="Color" fill="#2859C0"></path>
    </g>
</svg>

<svg xmlns="http://www.w3.org/2000/svg" width="24" height="24" viewBox="0 0 24 24">
    <path fill="#0050D7" fill-rule="evenodd" d="M12.016 5c.28.003.545.024.808.057 3.946.28 7.573 2.385 9.825 5.786a2.124 2.124 0 0 1-.004 2.32c-2.245 3.39-5.866 5.495-9.815 5.78a6.657 6.657 0 0 1-.829.058h-.012a6.87 6.87 0 0 1-.804-.056c-3.952-.276-7.587-2.382-9.843-5.787a2.128 2.128 0 0 1 .004-2.321c2.252-3.4 5.887-5.506 9.84-5.782.261-.032.525-.053.795-.054h.035zm-.014 2c-2.638 0-4.79 2.23-4.79 5 0 2.769 2.151 4.999 4.787 5l.013-.001c2.632-.006 4.778-2.234 4.778-5 0-2.768-2.152-4.998-4.788-5zM5.883 8.98a11.161 11.161 0 0 0-2.866 2.956c-.023.037-.023.092-.003.123a11.177 11.177 0 0 0 2.87 2.96 7.139 7.139 0 0 1-.673-3.02c0-1.08.246-2.102.672-3.018zm12.241.012a7.134 7.134 0 0 1 0 6.017 11.154 11.154 0 0 0 2.85-2.944.125.125 0 0 0 .004-.124 11.17 11.17 0 0 0-2.854-2.95zm-6.028.826a1.658 1.658 0 0 0-.095.545c0 .904.707 1.637 1.579 1.637.179 0 .358-.035.526-.099v.1c0 1.204-.942 2.181-2.105 2.181S9.896 13.205 9.896 12s.942-2.182 2.105-2.182z"/>
</svg>
